X:1
T:Herbstwanderung
T:Johann Jakob Nater
T:Friedrich Heinrich Oser
T:Herbstwanderung
T:CPDL - Creative Commons Attribution Non Commercial 3.0
T:CPDL - Creative Commons Attribution Non Commercial 3.0
T:CPDL - Creative Commons Attribution Non Commercial 3.0
C:Johann Jakob Nater
Z:Friedrich Heinrich Oser
Z:CPDL - Creative Commons Attribution Non Commercial 3.0
%%score [ 1 2 ( 3 4 ) ]
L:1/8
Q:1/4=120
M:3/4
K:D
V:1 treble nm="Sopran"
V:2 treble nm="Alt"
V:3 bass nm="Tenor\nBass"
V:4 bass 
V:1
"^Frisch und froh, doch nicht geschwind" D |!<(! F>E G3 F | B3!<)!!>(! A F!>)!D | %3
w: 1.~Der|Ne- bel weicht! Die|Ber- ge schau'n aufs|
w: 2.~Und|blüh‘n die Bäu- me|nim- mer- mehr, ei!|
w: 3.~Ge-|schwind! Eh‘ braust der|Sturm durchs Land, ver-|
!<(! C>E!<)! G3 F |!>(! E4!>)! z E |!<(! A>^G B3!<)! A | c3!>(! B GE!>)! |!<(! D>F!<)! A3 G | %8
w: Land so klar, so|klar! Die|Son- ne lacht! Die|Lüf- te blau'n durch-|sich- tig wun- der-|
w: steh‘n sie glü- hend|rot! Und|schied auch längst der|Vö- gel Heer, ist|je- der Sang nicht|
w: hallt der letz- te|Gruß! Und|bald, ach! un- ter‘m|Schee- ge- wand die|Flur nun schla- fen|
!>(! F4!>)! |!p! F2 | ^G3 G BG | A>E E2!mf! c2 |!<(! d>^d!<)! e2 d2 |!>(! c3!>)!!f!"^Soli" A =ge | %14
w: bar!|1\-3.~Die|sanf- ten, mil- den|Ta- ge noch, o|komm! sie win- ken|dir: Im Mor- gen-|
w: tot!||||||
w: muss!||||||
 d3 d fd | B4 z d | c>c c2 df | e3!f!"^Chor" A ge | d3 d fd | B4 z B | %20
w: glanz wie schön ist|doch der|Au- en letz- te _|Zier, im Mor- gen-|glanz wie schön ist|doch der|
w: ||||||
w: ||||||
 A>A Ad[Q:1/4=120]"^rit." FG | A4- !fermata!A[Q:1/4=120]"^a tempo"D |!<(! (F3 A) A!<)!d | d4 c2 | %24
w: Au- en letz- * te _|Zier, _ der|Au- * en _|letz- te|
w: ||||
w: ||||
 d6- | d2 z2 z |] %26
w: Zier.|_|
w: ||
w: ||
V:2
 D |!<(! F>E G3 F | B3!<)!!>(! A F!>)!D |!<(! A,>C!<)! E3 D |!>(! C4!>)! z E |!<(! A>^G B3!<)! A | %6
w: 1.~Der|Ne- bel weicht! Die|Ber- ge schau'n aufs|Land so klar, so|klar! Die|Son- ne lacht! Die|
w: 2.~Und|blüh‘n die Bäu- me|nim- mer- mehr, ei!|steh‘n sie glü- hend|rot! Und|schied auch längst der|
w: 3.~Ge-|schwind! Eh‘ braust der|Sturm durchs Land, ver-|hallt der letz- te|Gruß! Und|bald, ach! un- ter‘m|
 c3!>(! B GC!>)! |!<(! D>D!<)! F3 E |!>(! D4!>)! |!p! F2 | E3 E EE | E>E E2!mf! A2 | %12
w: Lüf- te blau'n durch-|sich- tig wun- der-|bar!|1\-3.~Die|sanf- ten, mil- den|Ta- ge noch, o|
w: Vö- gel Heer, ist|je- der Sang nicht|tot!||||
w: Schee- ge- wand die|Flur nun schla- fen|muss!||||
!<(! A>A!<)! B2 B2 |!>(! A3!>)! z z!f! G | F>F F2 z F | G>G G2 z G | A3 A AA | A3 z z!f! G | %18
w: komm! sie win- ken|dir: Im|Mor- gen- glanz wie|schön ist doch der|Au- en letz- te|Zier, im|
w: ||||||
w: ||||||
 F>F F2 z F | G>G G2 z2 | z2 z2 z D | C>E !fermata!A,3 z | z!<(! A, DF F!<)!A | (B2 A2) A2 | A6- | %25
w: Mor- gen- glanz wie|schön ist doch|der|Au- en Zier,|der Au- * en _|letz- * te|Zier.|
w: |||||||
w: |||||||
 A2 z2 z |] %26
w: _|
w: |
w: |
V:3
 D, |!<(! F,>E, G,3 F, | B,3!<)!!>(! A, F,!>)!A, |!<(! A,>A,!<)! A,3 A, |!>(! A,4!>)! z E, | %5
w: |||||
!<(! A,>^G, B,3!<)! A, | C3!>(! B, G,A,!>)! |!<(! A,>A,!<)! A,3 A, |!>(! A,4!>)! |!p! D2 | %10
w: |||||
 B,3 B, ^G,B, | A,>C C2!mf! E2 |!<(! F>F!<)! E2 E2 |!>(! E3!>)! z z!f! C | D>D D2 z D | %15
w: |||||
 D>D DB, DB, | E4 D2 | C3 z z!f! C | D>D D2 z D | D>D DB, G,F, | E,>G, F,2 z D | %21
w: * * * der Au- en|letz- te|Zier, *||* * * der Au- en|letz- te Zier, *|
 E>C !fermata!D3 z | z2 z2 z D | D>G F2 E2 | F6- | F2 z2 z |] %26
w: |der|Au- en letz- te|Zier.|_|
V:4
 D, | F,>E, G,3 F, | B,3 A, F,F, | G,>E, C,2 D,2 | A,,4 x E, | A,>^G, B,3 A, | C3 B, G,G, | %7
w: |||* so klar, so||||
 F,>D, (A,,2 B,,)C, | D,4 | D,2 | D,3 D, D,D, | C,>E, A,2 A,2 | F,>F, ^G,2 G,2 | A,3 x x A, | %14
w: |||||||
 D,>D, D,2 x D, | G,>G, G,G, B,G, | G,4 F,D, | A,,3 x x A, | D,>D, D,2 x D, | G,>G, G,G, E,D, | %20
w: ||||||
 C,>C, D,2 x B, | A,>G, F,3 x | x2 x2 x F, | G,>G, A,2 A,,2 | D,6- | D,2 x2 x |] %26
w: ||||||

